docs/assets/images/calc-svg/chamfer-04.svg

<svg width="76" height="44" viewBox="0 0 76 44" fill="none" xmlns="http://www.w3.org/2000/svg">
<path d="M74.8889 25.2083L33.7639 43L1.68056 35.125L1 12.9583L45.5278 1L59.2361 3.24834C68.5859 6.37701 74.8889 15.1326 74.8889 24.992V25.2083Z" fill="#D2D2D2"/>
<path d="M33.7639 43L74.8889 25.2083V24.992C74.8889 15.1326 68.5859 6.37701 59.2361 3.24834M33.7639 43L1.68056 35.125L1 12.9583M33.7639 43L33.6975 42.0099C32.956 30.944 26.3915 21.1051 16.4583 16.1719M1 12.9583L45.5278 1L59.2361 3.24834M1 12.9583L16.4583 16.1719M16.4583 16.1719L59.2361 3.24834" stroke="#838383"/>
</svg>

<svg width="76" height="44" fill="none" xmlns="http://www.w3.org/2000/svg"><path d="M74.889 25.208L33.764 43 1.68 35.125 1 12.958 45.528 1l13.708 2.248A22.929 22.929 0 0174.89 24.992v.216z" fill="#D2D2D2"/><path d="M33.764 43l41.125-17.792v-.216c0-9.86-6.303-18.615-15.653-21.744M33.764 43L1.68 35.125 1 12.958M33.764 43l-.067-.99a31.176 31.176 0 00-17.239-25.838M1 12.958L45.528 1l13.708 2.248M1 12.958l15.458 3.214m0 0L59.236 3.248" stroke="#838383"/></svg>
